!!!OTL: ICH DENKE DEIN
!!!ARE: Europa, Mitteleuropa, Deutschland
!!!SCT: B0392
!!!YEM: Copyright 1995, estate of Helmut Schaffrath.
**kern
*ICvox
*Ivox
*M4/4
*k[]
*C:
{4G
=1
2c
4.e
8d
=2
4d
4c
4r}
{8c
8B
=3
8B
8A
8G#
8A
8B
8c
8d#
8e
=4
4e
2d}
{8c
8A
=5
2G
4.B
8A
=6
2G
4r}
{4G
=7
2.f
8e
8d
=8
4c
2B}
{4c
=9
4d
4B
4G
4F
=10
2E
4D}
{8F
8A
=11
4G
2C
8E
8D
=12
2C
4r}
==
!!!AGN: Liebes - Lied, Liebes - Lust
!!!ONB: ESAC (Essen Associative Code) Database: BOEHME
!!!AMT: simple quadruple
!!!AIN: vox
!!!EED: Helmut Schaffrath
!!!EEV: 1.0
*-
